X:4330
L:1/4
M:4/4
K:G
"G" g3/2 f/ .g .d |"Am" .e .B .c .A |"D7" d z !>!f2 |"G" g B .e .B |: d3/2 B/ .e .B | 
 d3/2 B/ .e .B |"D7" c3/2 f/ .f .f | f3/2 c/ .e .c | d3/2 c/ e c | d3/2 c/ e c |"G" B3/2 g/ g g | 
 g3/2 B/ .e .B | d3/2 B/ .e .B | d3/2 B/ .e .B |"D" A3/2 f/ f f | f3/2 a/ b a |"A7" g3/2 a/ b g | 
"D" f3/2 f/ g f |"A7" f e B ^c |1"D" d3/2 d/ e B :|2"D" d z z2 |:"G" !>!b2 !>!g2 | d3 B | 
 e3/2 B/ e B |"D7" (c .f) f2 | !>!c'2 !>!f2 | d3 c | f3/2 c/ f c |"G" (B .g) g2 | !>!b2 !>!g2 | 
 d3 d | g3/2 d/ g f |"C" e a a2 | a2"^C#0" ^a2 |"G/D" b3/2 g/ d g |"D7" f d d3/2 f/ |1 
"G" g z z2 :|2"G" g g/g/ g z |:[K:C]"C" (G .c) c2 |"G7" (B .d) d2 |"F" (f .a) a2 |"C" (e .g) g2 | 
 e3/2 (f/4e/4) .d .c |"G7" .B .a g2 | f3/2 (g/4f/4) e d |"C" c c' g2 | (G c) c2 |"G7" (B .d) d2 | 
"F" (f .a) a2 |"C" (.e .g) g2 | e3/2 (f/4e/4) .d .c |1"G" (B b) g2 |"D7" d3/2 c/ B A | 
"G" G z G z :|2"F" c .c A2 |"G7" B3/2 A/ F B |"C" c c c z |]

